src/icons/outline/beaker.svg

<svg width="24" height="24" viewBox="0 0 24 24" fill="none" xmlns="http://www.w3.org/2000/svg">
<path d="M19.428 15.4282C19.1488 15.149 18.7932 14.9587 18.406 14.8812L16.0185 14.4037C14.7101 14.1421 13.3519 14.324 12.1585 14.9207L11.8411 15.0793C10.6477 15.676 9.28948 15.8579 7.98113 15.5963L6.04938 15.2099C5.39366 15.0788 4.71578 15.284 4.24294 15.7569M7.9998 4H15.9998L14.9998 5V10.1716C14.9998 10.702 15.2105 11.2107 15.5856 11.5858L20.5856 16.5858C21.8455 17.8457 20.9532 20 19.1714 20H4.82823C3.04642 20 2.15409 17.8457 3.41401 16.5858L8.41402 11.5858C8.78909 11.2107 8.9998 10.702 8.9998 10.1716V5L7.9998 4Z" stroke="#374151" stroke-width="2" stroke-linecap="round" stroke-linejoin="round"/>
</svg>

<svg xmlns="http://www.w3.org/2000/svg" fill="none" viewBox="0 0 24 24" stroke="currentColor">
  <path stroke-linecap="round" stroke-linejoin="round" stroke-width="2" d="M19.428 15.428a2 2 0 00-1.022-.547l-2.387-.477a6 6 0 00-3.86.517l-.318.158a6 6 0 01-3.86.517L6.05 15.21a2 2 0 00-1.806.547M8 4h8l-1 1v5.172a2 2 0 00.586 1.414l5 5c1.26 1.26.367 3.414-1.415 3.414H4.828c-1.782 0-2.674-2.154-1.414-3.414l5-5A2 2 0 009 10.172V5L8 4z"/>
</svg>
